packages/core/src/svgs/tokens/branded/SCS.svg

<svg width="24" height="24" viewBox="0 0 24 24" fill="none" xmlns="http://www.w3.org/2000/svg">
<path d="M12 21.4117C14.4961 21.4117 16.8901 20.4202 18.6551 18.6551C20.4202 16.89 21.4117 14.4961 21.4117 12C21.4117 9.50377 20.4202 7.10991 18.6551 5.34487C16.8901 3.57982 14.4961 2.58823 12 2.58823C9.5039 2.58823 7.10991 3.57982 5.34487 5.34487C3.57983 7.10991 2.58823 9.50377 2.58823 12C2.58823 14.4961 3.57983 16.89 5.34487 18.6551C7.10991 20.4202 9.5039 21.4117 12 21.4117ZM12 22C14.6522 22 17.1957 20.9464 19.0711 19.071C20.9464 17.1957 22 14.6522 22 12C22 9.34785 20.9464 6.80429 19.0711 4.92892C17.1957 3.05357 14.6522 2 12 2C9.34784 2 6.80429 3.05357 4.92892 4.92892C3.05357 6.80429 2 9.34785 2 12C2 14.6522 3.05357 17.1957 4.92892 19.071C6.80429 20.9464 9.34784 22 12 22Z" fill="#D9D9D9"/>
<path d="M11.9997 21.4117C17.1976 21.4117 21.4114 17.198 21.4114 12C21.4114 6.80197 17.1976 2.5882 11.9997 2.5882C6.80168 2.5882 2.58789 6.80197 2.58789 12C2.58789 17.198 6.80168 21.4117 11.9997 21.4117Z" fill="url(#paint0_linear_364_8344)"/>
<path d="M11.412 4.35291V3.47055L6.70614 8.17644L4.05908 15.2352L6.1179 15.8235L11.1179 12.2941L15.8238 15.2352L10.5297 17.5882L11.7061 18.1765L18.765 15.2352L11.1179 9.35291L4.94142 14.353L7.00025 8.76467L11.412 4.35291Z" fill="#16191D"/>
<path d="M16.9994 8.76467L17.2936 9.64704L13.4701 5.8235L14.0583 9.05878L18.7643 13.4706L19.6465 15.5294L12.2936 9.35291L11.9995 3.47055L16.9994 8.76467Z" fill="#1F232A"/>
<path d="M15.5294 12.5882V10.8235H15.9648V11.5353H16.2706V10.8235H16.706V12.5882H16.2706V11.8176H15.9648V12.5882H15.5294ZM14.6765 12.5882C14.5412 12.5882 14.4295 12.5706 14.3412 12.5294C14.2546 12.4955 14.182 12.4333 14.1353 12.3529C14.0854 12.2566 14.0591 12.1496 14.0589 12.0412L14.4647 11.9941C14.4647 12.0706 14.4706 12.1295 14.4882 12.1706C14.5059 12.2176 14.5236 12.253 14.5471 12.2706C14.5765 12.2883 14.6117 12.2999 14.6529 12.2999C14.7 12.2999 14.7295 12.2883 14.7471 12.2587C14.7648 12.2353 14.7707 12.2 14.7707 12.1764C14.7736 12.1124 14.7526 12.0494 14.7118 12C14.66 11.9414 14.6007 11.8899 14.5353 11.847L14.3471 11.7177C14.2707 11.6647 14.2 11.5999 14.1412 11.5353C14.084 11.4592 14.0549 11.3656 14.0589 11.2705C14.0589 11.1294 14.1176 11.0177 14.2236 10.9411C14.3294 10.8647 14.4765 10.8235 14.6588 10.8235C14.7764 10.8235 14.8706 10.8412 14.9354 10.8706C15.0059 10.8999 15.0589 10.9411 15.0942 10.9882C15.1295 11.0471 15.1529 11.0941 15.1706 11.1529C15.1824 11.2118 15.1941 11.2588 15.1941 11.3117L14.7823 11.3529C14.7823 11.3 14.7823 11.2588 14.7707 11.2177C14.7674 11.1873 14.755 11.1587 14.7353 11.1353C14.7177 11.1117 14.6883 11.1 14.6471 11.1C14.6001 11.1 14.5706 11.1176 14.5471 11.147C14.5287 11.1729 14.5184 11.2035 14.5177 11.2352C14.5177 11.2941 14.5353 11.3529 14.5765 11.394L14.7236 11.5118L14.9 11.6411C14.9941 11.7 15.0765 11.7764 15.1354 11.8588C15.2 11.9352 15.2353 12.0353 15.2353 12.1529C15.2353 12.2353 15.2118 12.3117 15.1647 12.3765C15.1148 12.4438 15.0478 12.4966 14.9707 12.5294C14.8883 12.5706 14.7941 12.5882 14.6765 12.5882ZM12.8823 12.5882L13.2353 10.8235H13.7058L14.0589 12.5882H13.6765L13.6177 12.2176H13.3412L13.2765 12.5882H12.8823ZM13.3764 12H13.5766L13.4765 11.2941L13.3764 12ZM12.0118 12.5882C11.8588 12.5882 11.7412 12.5647 11.6529 12.5176C11.5692 12.4745 11.5028 12.4038 11.4648 12.3176C11.4295 12.2353 11.4118 12.1295 11.4118 12.0176V11.3999C11.4118 11.2823 11.4295 11.1765 11.4707 11.0941C11.5044 11.0089 11.5667 10.9382 11.647 10.8942C11.7412 10.8471 11.8588 10.8235 12.0118 10.8235C12.1588 10.8235 12.2765 10.8471 12.3588 10.8824C12.4412 10.9294 12.5001 10.9882 12.5353 11.0589C12.5706 11.1353 12.5883 11.2236 12.5883 11.3176V11.4647H12.1529V11.2C12.1495 11.1702 12.1348 11.1429 12.1118 11.1235C12.0942 11.1 12.0588 11.0882 12.0118 11.0882C11.9648 11.0882 11.9295 11.1 11.9059 11.1235C11.885 11.1445 11.8708 11.171 11.8647 11.2V12.2176L11.9118 12.2942C11.9353 12.3117 11.9707 12.3176 12.0118 12.3176C12.0588 12.3176 12.0942 12.3117 12.1118 12.2883C12.1307 12.2667 12.1431 12.2401 12.147 12.2118L12.1529 12.1117V11.9293H12.5883V12.0765C12.5883 12.1764 12.5706 12.2647 12.5353 12.3411C12.4983 12.4184 12.436 12.4806 12.3588 12.5176C12.2765 12.5647 12.1648 12.5882 12.0118 12.5882ZM8.61768 9.9294V9.64706L7.01767 11.1529L6.11768 13.4117L6.81768 13.6L8.51767 12.4705L10.1118 13.4117L8.31766 14.1647L8.71767 14.353L11.1117 13.4117L8.51767 11.5294L6.41767 13.1294L7.11767 11.3412L8.61768 9.9294Z" fill="#D2D2D4"/>
<path d="M10.512 11.3412L10.6121 11.6235L9.31788 10.4L9.51195 11.4352L11.1119 12.847L11.412 13.5058L8.91199 11.5294L8.81787 9.64706L10.512 11.3412Z" fill="#D2D2D4"/>
<defs>
<linearGradient id="paint0_linear_364_8344" x1="7.93715" y1="2.93745" x2="15.7496" y2="21.3749" gradientUnits="userSpaceOnUse">
<stop stop-color="#383D45"/>
<stop offset="1" stop-color="#1A1D22"/>
</linearGradient>
</defs>
</svg>

<svg xmlns="http://www.w3.org/2000/svg" width="24" height="24" fill="none" viewBox="0 0 24 24">
    <path fill="#D9D9D9" d="M12 21.412a9.411 9.411 0 1 0 0-18.823 9.411 9.411 0 0 0 0 18.823M12 22a10 10 0 1 0 0-20 10 10 0 0 0 0 20"/>
    <path fill="url(#SCS__a)" d="M12 21.412a9.412 9.412 0 1 0 0-18.823 9.412 9.412 0 0 0 0 18.823"/>
    <path fill="#16191D" d="M11.412 4.353V3.47L6.706 8.176l-2.647 7.06 2.059.587 5-3.529 4.706 2.941-5.294 2.353 1.176.588 7.059-2.94-7.647-5.883-6.177 5 2.06-5.588z"/>
    <path fill="#1F232A" d="m17 8.765.294.882-3.824-3.823.588 3.235 4.706 4.412.883 2.058-7.353-6.176-.295-5.882z"/>
    <path fill="#D2D2D4" d="M15.53 12.588v-1.764h.435v.711h.306v-.712h.435v1.765h-.435v-.77h-.306v.77zm-.853 0a.8.8 0 0 1-.336-.059.4.4 0 0 1-.206-.176.7.7 0 0 1-.076-.312l.406-.047q-.001.115.023.177.026.072.06.1.043.027.105.029.069.001.094-.041a.15.15 0 0 0 .024-.083.26.26 0 0 0-.06-.176 1 1 0 0 0-.176-.153l-.188-.13a1.2 1.2 0 0 1-.206-.182.4.4 0 0 1-.082-.264.39.39 0 0 1 .165-.33.74.74 0 0 1 .435-.118.7.7 0 0 1 .276.048q.106.045.16.117a.7.7 0 0 1 .076.165c.011.059.023.106.023.159l-.412.04c0-.052 0-.093-.011-.134a.15.15 0 0 0-.036-.083q-.026-.035-.088-.035a.12.12 0 0 0-.1.047.16.16 0 0 0-.03.088c0 .06.018.118.06.159l.147.118.176.13a.8.8 0 0 1 .235.217q.099.115.1.294a.37.37 0 0 1-.07.223.5.5 0 0 1-.194.153.64.64 0 0 1-.294.06m-1.795 0 .353-1.764h.47l.354 1.764h-.382l-.06-.37h-.276l-.064.37zm.494-.588h.2l-.1-.706zm-1.364.588a.76.76 0 0 1-.36-.07.4.4 0 0 1-.187-.2.8.8 0 0 1-.053-.3V11.4c0-.118.018-.223.059-.306a.4.4 0 0 1 .176-.2.8.8 0 0 1 .365-.07.9.9 0 0 1 .347.058.4.4 0 0 1 .176.177.6.6 0 0 1 .053.259v.147h-.435V11.2a.12.12 0 0 0-.041-.076q-.028-.036-.1-.036-.07 0-.106.036a.15.15 0 0 0-.041.076v1.018l.047.076q.037.026.1.024c.047 0 .082-.006.1-.03a.15.15 0 0 0 .035-.076l.006-.1v-.183h.435v.147q0 .15-.053.265a.38.38 0 0 1-.176.177.7.7 0 0 1-.347.07M8.618 9.93v-.282l-1.6 1.506-.9 2.259.7.188 1.7-1.13 1.594.942-1.794.753.4.188 2.394-.941-2.594-1.883-2.1 1.6.7-1.788z"/>
    <path fill="#D2D2D4" d="m10.512 11.341.1.283L9.318 10.4l.194 1.035 1.6 1.412.3.659-2.5-1.977-.094-1.882z"/>
    <defs>
        <linearGradient id="SCS__a" x1="7.937" x2="15.75" y1="2.937" y2="21.375" gradientUnits="userSpaceOnUse">
            <stop stop-color="#383D45"/>
            <stop offset="1" stop-color="#1A1D22"/>
        </linearGradient>
    </defs>
</svg>
